svgs/light/folder-plus.svg

<svg xmlns="http://www.w3.org/2000/svg" viewBox="0 0 512 512"><!-- Font Awesome Pro 6.0.0-alpha2 by @fontawesome - https://fontawesome.com License - https://fontawesome.com/license (Commercial License) --><path d="M448 96H272L226.746 50.746C214.742 38.742 198.465 32 181.492 32H64C28.656 32 0 60.654 0 96V416C0 451.346 28.656 480 64 480H448C483.344 480 512 451.346 512 416V160C512 124.654 483.344 96 448 96ZM480 416C480 433.645 465.645 448 448 448H64C46.355 448 32 433.645 32 416V96C32 78.355 46.355 64 64 64H181.492C190.039 64 198.074 67.328 204.117 73.375L249.375 118.627L258.746 128H448C465.645 128 480 142.355 480 160V416ZM336 272.002H272V207.998C272 199.16 264.836 192 256 192S240 199.16 240 207.998V272.002H176C167.16 272.002 160 279.162 160 288C160 296.834 167.156 303.998 176 303.998H240V368.002C240 376.836 247.156 384 256 384C264.836 384 272 376.84 272 368.002V303.998H336C344.84 303.998 352 296.838 352 288S344.84 272.002 336 272.002Z"/></svg>

<svg xmlns="http://www.w3.org/2000/svg" viewBox="0 0 512 512"><!--! Font Awesome Pro 6.3.0 by @fontawesome - https://fontawesome.com License - https://fontawesome.com/license (Commercial License) Copyright 2023 Fonticons, Inc. --><path d="M448 96h-176L226.7 50.75C214.7 38.74 198.5 32 181.5 32H64C28.66 32 0 60.65 0 96v320c0 35.35 28.66 64 64 64h384c35.34 0 64-28.65 64-64V160C512 124.7 483.3 96 448 96zM480 416c0 17.64-14.36 32-32 32H64c-17.64 0-32-14.36-32-32V96c0-17.64 14.36-32 32-32h117.5c8.547 0 16.58 3.328 22.62 9.375L258.7 128H448c17.64 0 32 14.36 32 32V416zM336 272h-64V207.1C272 199.2 264.8 192 256 192S240 199.2 240 207.1V272h-64C167.2 272 160 279.2 160 288c0 8.834 7.156 15.1 16 15.1h64v64C240 376.8 247.2 384 256 384c8.836 0 16-7.16 16-15.1V303.1h64C344.8 303.1 352 296.8 352 288S344.8 272 336 272z"/></svg>
